packages/ui/src/icons/warning.svg

<svg fill="none" height="24" viewBox="0 0 24 24" width="24" xmlns="http://www.w3.org/2000/svg"><path d="m1 21h22l-11-19zm12-3h-2v-2h2zm0-4h-2v-4h2z" fill="#000"/></svg>

<svg width="24" height="24" viewBox="0 0 24 24" fill="none" xmlns="http://www.w3.org/2000/svg">
<path d="M1 21H23L12 2L1 21ZM13 18H11V16H13V18ZM13 14H11V10H13V14Z" fill="black"/>
</svg>
